X:1
T:Luz, LMD
T:Luz, LMD
T:Lowell Mason, 1839
T:Public Domain Courtesy of the Cyber Hymnal™
C:Lowell Mason, 1839
Z:Public Domain
Z:Courtesy of the Cyber Hymnal™
%%score ( 1 2 ) ( 3 4 )
L:1/8
Q:1/4=130
M:3/2
K:C
V:1 treble 
V:2 treble 
V:3 bass 
V:4 bass 
V:1
 C2 C2 C2 | [CE]6 [CE]2 [DF]2 [CE]2 | [B,D]6 [B,D]2 [B,D]2 [CE]2 | [DF]2 [DF]2 [DG]4 [DF]4 | %4
 [CE]8 [CE]4 | [EA]3 [EA] [EA]2 [EA]2 [DG]2 [D^F]2 | [DG]6 [EG]2 [EG]2 [G_B]2 | %7
 [FA]2 [DF]2 [CE]4 [B,D]4 | C4 z2 C2 C2 C2 | A6 A2 A2 A2 | G6 C2 C2 C2 | F6 [DF]2 [DF]2 [DF]2 | %12
 [^CE]8 [CE]4 | D3 D D2 D2 [^CE]2 [CE]2 | [DF]6 [B,D]2 [CE]2 [DF]2 | [EG]2 [DF]2 [CE]4 [B,D]4 | %16
 !fermata!C8 |] %17
V:2
 C2 C2 C2 | x12 | x12 | x12 | x12 | x12 | x12 | x12 | C4 C2 C2 C2 x2 | A6 A2 A2 A2 | G6 C2 C2 C2 | %11
 F6 x6 | x12 | D3 D D2 D2 x4 | x12 | x12 | C8 |] %17
V:3
 C,2 C,2 C,2 | [C,G,]6 [C,G,]2 [B,,G,]2 [C,G,]2 | [G,,G,]6 G,2 [F,G,]2 [E,G,]2 | %3
 [D,A,]2 [D,A,]2 [B,,G,]4 [G,,G,]4 | [C,G,]8 [C,G,]4 | %5
 [A,,C]3 [A,,C] [A,,C]2 [A,,C]2 [D,B,]2 [D,A,]2 | [G,B,]6 [C,C]2 [C,C]2 [C,C]2 | %7
 [F,C]2 [F,A,]2 G,4 (G,2 F,2) | [C,E,]4 z2 C,2 C,2 C,2 | A,6 A,2 A,2 A,2 | G,6 C,2 C,2 C,2 | %11
 F,6 [D,A,]2 [D,A,]2 [D,A,]2 | [A,,A,]8 A,4 | [F,A,]3 [F,A,] [F,A,]2 [F,A,]2 [E,G,]2 [E,G,]2 | %14
 [D,F,]6 [F,G,]2 [E,G,]2 [D,G,]2 | [C,G,]2 [F,A,]2 G,4 (G,2 F,2) | !fermata![C,E,]8 |] %17
V:4
 C,2 C,2 C,2 | x12 | x6 G,2 x4 | x12 | x12 | x12 | x12 | x4 G,4 G,,4 | x6 C,2 C,2 C,2 | %9
 A,6 A,2 A,2 A,2 | G,6 C,2 C,2 C,2 | F,6 x6 | x8 A,2 G,2 | x12 | x12 | x4 G,4 G,,4 | x8 |] %17

